poi/svg/1812.svg

<?xml version="1.0" encoding="UTF-8" standalone="no"?>
<svg
   xmlns:dc="http://purl.org/dc/elements/1.1/"
   xmlns:cc="http://creativecommons.org/ns#"
   xmlns:rdf="http://www.w3.org/1999/02/22-rdf-syntax-ns#"
   xmlns:svg="http://www.w3.org/2000/svg"
   xmlns="http://www.w3.org/2000/svg"
   xmlns:sodipodi="http://sodipodi.sourceforge.net/DTD/sodipodi-0.dtd"
   xmlns:inkscape="http://www.inkscape.org/namespaces/inkscape"
   inkscape:version="1.0 (4035a4fb49, 2020-05-01)"
   sodipodi:docname="1812.svg"
   id="svg20"
   version="1.2"
   viewBox="0 0 42.519639 42.519639"
   height="14.999999mm"
   width="14.999999mm">
  <metadata
     id="metadata24">
    <rdf:RDF>
      <cc:Work
         rdf:about="">
        <dc:format>image/svg+xml</dc:format>
        <dc:type
           rdf:resource="http://purl.org/dc/dcmitype/StillImage" />
        <dc:title>Qt SVG Document</dc:title>
      </cc:Work>
    </rdf:RDF>
  </metadata>
  <sodipodi:namedview
     inkscape:current-layer="svg20"
     inkscape:window-maximized="0"
     inkscape:window-y="0"
     inkscape:window-x="0"
     inkscape:cy="28.346482"
     inkscape:cx="28.346482"
     inkscape:zoom="5.8410537"
     showgrid="false"
     id="namedview22"
     inkscape:window-height="480"
     inkscape:window-width="1034"
     inkscape:pageshadow="2"
     inkscape:pageopacity="0"
     guidetolerance="10"
     gridtolerance="10"
     objecttolerance="10"
     borderopacity="1"
     bordercolor="#666666"
     pagecolor="#ffffff" />
  <title
     id="title2">Qt SVG Document</title>
  <desc
     id="desc4">Generated with Qt</desc>
  <defs
     id="defs6" />
  <g
     transform="translate(5.25984,5.25984)"
     id="g18"
     stroke-linejoin="bevel"
     stroke-linecap="square"
     fill-rule="evenodd"
     stroke-width="1"
     stroke="#000000"
     fill="none">
    <g
       id="g10"
       font-style="normal"
       font-weight="400"
       font-size="7.8px"
       font-family="'MS Shell Dlg 2'"
       stroke="none"
       fill-opacity="1"
       fill="#a61215">
      <path
         id="path8"
         d="M 37.2598,16 C 37.2598,27.7415 27.7415,37.2598 16,37.2598 4.25851,37.2598 -5.25984,27.7415 -5.25984,16 -5.25984,4.25851 4.25851,-5.25984 16,-5.25984 27.7415,-5.25984 37.2598,4.25851 37.2598,16"
         fill-rule="evenodd"
         vector-effect="non-scaling-stroke" />
    </g>
    <g
       id="g14"
       font-style="normal"
       font-weight="400"
       font-size="7.8px"
       font-family="'MS Shell Dlg 2'"
       transform="translate(16,12.0315)"
       stroke="none"
       fill-opacity="0.94902"
       fill="#ffffff">
      <path
         id="path12"
         d="M -3.30518,-1.51709 H -12.7114 L 0.0961914,-7.71094 12.7778,-1.51709 H 3.45557 v -2.77148 h -6.76075 v 2.77148 M 9.69141,1.00244 V 12.6973 h 1.70069 v 1.9106 H 3.05664 L 2.88867,11.7104 h 1.6377 L 4.94629,10.4297 H 3.30859 L 3.70752,9.77881 C 3.38558,9.20492 2.90267,8.7465 2.25879,8.40356 1.61491,8.06063 0.894043,7.88916 0.0961914,7.88916 -0.799642,7.88916 -1.5695,8.06063 -2.21338,8.40356 -2.85726,8.7465 -3.33317,9.20492 -3.64111,9.77881 l 0.33593,0.65089 h -1.63769 l 0.48291,1.2807 h 1.63769 l -0.18896,2.8975 h -8.25147 v -1.9106 h 1.72168 V 1.00244 l -1.72168,-0.713866 -0.168,-0.818847 H 11.4971 L 11.3081,0.288574 9.69141,1.00244 M -2.6543,4.4458 c 0,-0.68587 0.17847,-1.28076 0.5354,-1.78467 0.35694,-0.5039 0.82235,-0.85384 1.396244,-1.0498 C -0.834635,1.35938 -0.936117,1.11792 -1.0271,0.886963 -1.11808,0.656006 -1.20557,0.540527 -1.28955,0.540527 -1.83545,0.764486 -2.27987,1.17041 -2.6228,1.7583 c -0.34294,0.58789 -0.44442,1.18278 -0.30445,1.78467 0,0.16797 0.0315,0.34643 0.09449,0.5354 0.06298,0.18896 0.12247,0.36743 0.17846,0.5354 V 4.4458 M 0.180176,7.23828 C 0.754069,7.18229 1.24048,6.92684 1.6394,6.47192 2.03833,6.01701 2.23779,5.46061 2.23779,4.80273 2.1818,4.13086 1.92635,3.56746 1.47144,3.11255 1.01652,2.65763 0.488118,2.45817 -0.11377,2.51416 -0.743652,2.57015 -1.26156,2.8361 -1.66748,3.31201 -2.0734,3.78792 -2.24837,4.34082 -2.19238,4.9707 c 0,0.68588 0.23095,1.24927 0.69287,1.69019 0.46191,0.44092 1.021808,0.63338 1.679686,0.57739 M 2.63672,4.69775 C 2.7207,4.4738 2.79769,4.24634 2.86768,4.01538 2.93766,3.78442 2.97266,3.55697 2.97266,3.33301 2.97266,2.75911 2.76619,2.16423 2.35327,1.54834 1.94035,0.932454 1.35596,0.540527 0.600098,0.372559 0.544108,0.316569 0.467122,0.414551 0.369141,0.666504 0.271159,0.918457 0.180176,1.2054 0.0961914,1.52734 0.810059,1.58333 1.41195,1.87728 1.90186,2.40918 2.39176,2.94108 2.63672,3.61995 2.63672,4.4458 v 0.25195"
         fill-rule="evenodd"
         vector-effect="none" />
    </g>
    <g
       id="g16"
       font-style="normal"
       font-weight="400"
       font-size="7.8px"
       font-family="'MS Shell Dlg 2'"
       stroke="none"
       fill-opacity="1"
       fill="#a61215" />
  </g>
</svg>

<?xml version="1.0" encoding="UTF-8" standalone="no"?>
<svg width="11.2889mm" height="11.2889mm"
 viewBox="0 0 32 32"
 xmlns="http://www.w3.org/2000/svg" xmlns:xlink="http://www.w3.org/1999/xlink"  version="1.2" baseProfile="tiny">
<title>Qt SVG Document</title>
<desc>Generated with Qt</desc>
<defs>
</defs>
<g fill="none" stroke="black" stroke-width="1" fill-rule="evenodd" stroke-linecap="square" stroke-linejoin="bevel" >

<g fill="#a61215" fill-opacity="1" stroke="none" transform="matrix(1,0,0,1,0,0)"
font-family="MS Shell Dlg 2" font-size="7.8" font-weight="400" font-style="normal" 
>
<path vector-effect="non-scaling-stroke" fill-rule="evenodd" d="M37.2598,16 C37.2598,27.7415 27.7415,37.2598 16,37.2598 C4.25851,37.2598 -5.25984,27.7415 -5.25984,16 C-5.25984,4.25851 4.25851,-5.25984 16,-5.25984 C27.7415,-5.25984 37.2598,4.25851 37.2598,16 "/>
</g>

<g fill="#ffffff" fill-opacity="0.94902" stroke="none" transform="matrix(1,0,0,1,16,12.0315)"
font-family="MS Shell Dlg 2" font-size="7.8" font-weight="400" font-style="normal" 
>
<path vector-effect="none" fill-rule="evenodd" d="M-3.30518,-1.51709 L-12.7114,-1.51709 L0.0961914,-7.71094 L12.7778,-1.51709 L3.45557,-1.51709 L3.45557,-4.28857 L-3.30518,-4.28857 L-3.30518,-1.51709 M9.69141,1.00244 L9.69141,12.6973 L11.3921,12.6973 L11.3921,14.6079 L3.05664,14.6079 L2.88867,11.7104 L4.52637,11.7104 L4.94629,10.4297 L3.30859,10.4297 L3.70752,9.77881 C3.38558,9.20492 2.90267,8.7465 2.25879,8.40356 C1.61491,8.06063 0.894043,7.88916 0.0961914,7.88916 C-0.799642,7.88916 -1.5695,8.06063 -2.21338,8.40356 C-2.85726,8.7465 -3.33317,9.20492 -3.64111,9.77881 L-3.30518,10.4297 L-4.94287,10.4297 L-4.45996,11.7104 L-2.82227,11.7104 L-3.01123,14.6079 L-11.2627,14.6079 L-11.2627,12.6973 L-9.54102,12.6973 L-9.54102,1.00244 L-11.2627,0.288574 L-11.4307,-0.530273 L11.4971,-0.530273 L11.3081,0.288574 L9.69141,1.00244 M-2.6543,4.4458 C-2.6543,3.75993 -2.47583,3.16504 -2.1189,2.66113 C-1.76196,2.15723 -1.29655,1.80729 -0.722656,1.61133 C-0.834635,1.35938 -0.936117,1.11792 -1.0271,0.886963 C-1.11808,0.656006 -1.20557,0.540527 -1.28955,0.540527 C-1.83545,0.764486 -2.27987,1.17041 -2.6228,1.7583 C-2.96574,2.34619 -3.06722,2.94108 -2.92725,3.54297 C-2.92725,3.71094 -2.89575,3.8894 -2.83276,4.07837 C-2.76978,4.26733 -2.71029,4.4458 -2.6543,4.61377 L-2.6543,4.4458 M0.180176,7.23828 C0.754069,7.18229 1.24048,6.92684 1.6394,6.47192 C2.03833,6.01701 2.23779,5.46061 2.23779,4.80273 C2.1818,4.13086 1.92635,3.56746 1.47144,3.11255 C1.01652,2.65763 0.488118,2.45817 -0.11377,2.51416 C-0.743652,2.57015 -1.26156,2.8361 -1.66748,3.31201 C-2.0734,3.78792 -2.24837,4.34082 -2.19238,4.9707 C-2.19238,5.65658 -1.96143,6.21997 -1.49951,6.66089 C-1.0376,7.10181 -0.477702,7.29427 0.180176,7.23828 M2.63672,4.69775 C2.7207,4.4738 2.79769,4.24634 2.86768,4.01538 C2.93766,3.78442 2.97266,3.55697 2.97266,3.33301 C2.97266,2.75911 2.76619,2.16423 2.35327,1.54834 C1.94035,0.932454 1.35596,0.540527 0.600098,0.372559 C0.544108,0.316569 0.467122,0.414551 0.369141,0.666504 C0.271159,0.918457 0.180176,1.2054 0.0961914,1.52734 C0.810059,1.58333 1.41195,1.87728 1.90186,2.40918 C2.39176,2.94108 2.63672,3.61995 2.63672,4.4458 L2.63672,4.69775"/>
</g>

<g fill="#a61215" fill-opacity="1" stroke="none" transform="matrix(1,0,0,1,0,0)"
font-family="MS Shell Dlg 2" font-size="7.8" font-weight="400" font-style="normal" 
>
</g>
</g>
</svg>
